Setup/v9/Assets/Themes/Kobe - Light/RotateLeft.svg

<svg width="20" height="20" viewBox="0 0 20 20" fill="none" xmlns="http://www.w3.org/2000/svg">
<g clip-path="url(#clip0_806_738)">
<path fill-rule="evenodd" clip-rule="evenodd" d="M2.43371 4.44759C2.74633 4.64998 3.11902 4.76749 3.51917 4.76749H5.44321C5.71935 4.76749 5.94321 4.99135 5.94321 5.26749C5.94321 5.54363 5.71935 5.76749 5.44321 5.76749L1.01927 5.76749C0.966393 5.76749 0.915435 5.75928 0.867599 5.74407C0.665553 5.67988 0.519165 5.49076 0.519165 5.26746V0.836299C0.519165 0.560157 0.743022 0.336299 1.01917 0.336299C1.29531 0.336299 1.51917 0.560157 1.51917 0.836299L1.51917 2.76749C1.51917 3.10526 1.6029 3.42348 1.75074 3.70252C2.64922 2.61605 3.7807 1.73885 5.06891 1.1343C6.589 0.420934 8.27589 0.111301 9.96788 0.233459C11.6598 0.355609 13.3008 0.905426 14.7346 1.82962C16.1684 2.75382 17.348 4.02214 18.1604 5.51395C18.9728 7.00583 19.3911 8.67202 19.3738 10.3535C19.3564 12.0352 18.904 13.6755 18.0587 15.1169C17.919 15.3551 17.6127 15.435 17.3745 15.2953C17.1363 15.1556 17.0564 14.8493 17.1961 14.6111C17.9524 13.3212 18.3583 11.852 18.3738 10.3432C18.3894 8.83442 18.014 7.33616 17.2822 5.9922C16.5503 4.64817 15.4867 3.50411 14.1929 2.67014C12.899 1.83617 11.4194 1.34085 9.89587 1.23086C8.37247 1.12088 6.85688 1.39987 5.49375 2.03957C4.29636 2.6015 3.25133 3.42543 2.43371 4.44759Z" fill="black"/>
<circle cx="9.5" cy="10" r="1.5" fill="black" fill-opacity="0.1" stroke="black"/>
<path fill-rule="evenodd" clip-rule="evenodd" d="M9.23976 19.3668C9.23819 19.0907 9.46076 18.8656 9.7369 18.864C10.1154 18.8618 10.4915 18.8358 10.8631 18.7864C11.1369 18.75 11.3883 18.9424 11.4246 19.2161C11.461 19.4899 11.2686 19.7413 10.9949 19.7777C10.5815 19.8326 10.1633 19.8616 9.74261 19.864C9.46647 19.8656 9.24134 19.643 9.23976 19.3668ZM12.7655 18.86C12.6609 18.6044 12.7833 18.3124 13.0388 18.2078C13.3864 18.0655 13.7249 17.9008 14.052 17.7141C14.3771 17.5286 14.6883 17.3231 14.9841 17.0992C15.2042 16.9324 15.5178 16.9757 15.6845 17.1959C15.8512 17.416 15.8079 17.7296 15.5878 17.8963C15.2576 18.1464 14.9102 18.3758 14.5476 18.5827C14.1826 18.7909 13.8051 18.9747 13.4177 19.1333C13.1621 19.2379 12.8701 19.1155 12.7655 18.86ZM16.6572 16.2364C16.4393 16.0668 16.4001 15.7527 16.5697 15.5347C16.7977 15.2418 17.007 14.9334 17.196 14.6111C17.3357 14.3729 17.642 14.293 17.8802 14.4327C18.1184 14.5724 18.1983 14.8787 18.0586 15.1169C17.8475 15.477 17.6136 15.8216 17.3589 16.1489C17.1893 16.3668 16.8751 16.406 16.6572 16.2364Z" fill="black"/>
</g>
<defs>
<clipPath id="clip0_806_738">
<rect width="20" height="20" fill="white"/>
</clipPath>
</defs>
</svg>

<svg xmlns="http://www.w3.org/2000/svg" width="20" height="20" fill="none"><g fill="#000"><path fill-rule="evenodd" d="M2.434 4.448c.312.202.685.32 1.085.32h1.924a.5.5 0 0 1 0 1H1.02a.5.5 0 0 1-.5-.5V.835a.5.5 0 0 1 1 0v1.931c0 .338.084.656.232.936a9.587 9.587 0 0 1 3.318-2.569 9.857 9.857 0 0 1 4.899-.9C11.66.355 13.3.904 14.735 1.83a10.183 10.183 0 0 1 3.425 3.684 9.911 9.911 0 0 1 1.214 4.84 9.605 9.605 0 0 1-1.315 4.763.5.5 0 1 1-.863-.506 8.605 8.605 0 0 0 1.178-4.268 8.911 8.911 0 0 0-1.092-4.35 9.183 9.183 0 0 0-3.09-3.323 9.156 9.156 0 0 0-4.296-1.44 8.858 8.858 0 0 0-4.402.81 8.584 8.584 0 0 0-3.06 2.408Z" clip-rule="evenodd"/><circle cx="9.5" cy="10" r="1.5" fill="#000" fill-opacity=".1" stroke="#000"/><path fill-rule="evenodd" d="M9.24 19.367a.5.5 0 0 1 .497-.503 8.94 8.94 0 0 0 1.126-.078.5.5 0 1 1 .132.992 9.943 9.943 0 0 1-1.252.086.5.5 0 0 1-.503-.497Zm3.525-.507a.5.5 0 0 1 .274-.652 8.67 8.67 0 0 0 1.945-1.109.5.5 0 1 1 .604.797 9.615 9.615 0 0 1-2.17 1.237.5.5 0 0 1-.652-.273Zm3.892-2.624a.5.5 0 0 1-.087-.701c.228-.293.437-.602.626-.924a.5.5 0 1 1 .863.506 9.52 9.52 0 0 1-.7 1.032.5.5 0 0 1-.702.087Z" clip-rule="evenodd"/></g></svg>
